X:165
T:Highlanders Quadrilles #3. Le4.165, The
T:Oh Tell Me Where and Tell Me When,aka. Le4.165
Q:3/8=100
L:1/8
B:L.Leadley MS#4 c1850
Z:vmp.Mike Hicken 2016 www.village-music-project.org.uk
M:6/8
K:G
.B.c|.d.e.f .g.a.b|d'2c' abc'|fga def|a2g B2c|def gab|b2a eag|fga dba|
g3- g2 !fermata!|]!f!(d|!>!b2)(d !>!b2)d|(bc'b) (aba)|(g2f) (g2b)|(a2f) dg(a|!>!b2)(d !>!b2)d|b3- b2a|
gfe gfe|b3- b2||!p!.B.c| .d.e.f .g.a.b|d'2c' abc'|fga def|a2g B2c|def gab|
b2a eag|fga dba|g3-g2||!ff!(B|!>!g2) (B !>!g2) (B|g3) gfe|d2e d2c|
B3-B2 (B|!>!e2) (B !>!f2) (B|g2)f g2a|(b2e') (g2f)|e3- e2 "_D.C."|]

